X:1
T: The Duke of Roxburgh
C:
R:Reel
Q: 232
K:G
M:4/4
L:1/8
|:B|GG Bc de dB|GG Bc d3B|GG Bc de dB|AA Bd e3g|
GG Bc de dB|GG Bc d3B|GG Bc de dB|AA Bd e3f|
ga ge de dB|ga ge fg ab|ga ge de dB|AA Bd e3f|
ga ge de dB|ga ge fg ab|ga ge de dB|AA Bd e3:|
